X:3886
L:1/8
M:4/4
K:D
|: E2 e2 e2 dc | B2 AG F2 ED | E2 e2 e2 dc | B2 cd c2 A2 | E2 e2 e2 dc | B2 cd c2 A2 | 
 G2 cd c2 BA | GE FG A4 :: A2 cd c2 A2 | cd F2 G2 GF | E2 ed cd ec | dc BA c2 B2 | A2 cd c2 A2 | 
 cd F2 G4 |1 GFED E2 EF | Gd c2 A4 :|2 GFED E2 ed | c2 B2 A4 :|

